icons/upload-16.svg

<svg xmlns="http://www.w3.org/2000/svg" width="16" height="16" viewBox="0 0 16 16"><path d="M8.53 1.22l3.75 3.75a.749.749 0 01-.326 1.275.749.749 0 01-.734-.215L8.75 3.56v6.69a.75.75 0 01-1.5 0V3.56L4.78 6.03a.751.751 0 01-1.042-.018.751.751 0 01-.018-1.042l3.75-3.75a.75.75 0 011.06 0zM3.75 13h8.5a.75.75 0 010 1.5h-8.5a.75.75 0 010-1.5z"/></svg>

<svg xmlns="http://www.w3.org/2000/svg" width="16" height="16" viewBox="0 0 16 16">
  <defs/>
  <path d="M8.53,1.22 L12.28,4.97 C12.481,5.157 12.563,5.439 12.495,5.704 C12.428,5.97 12.22,6.178 11.954,6.245 C11.689,6.313 11.407,6.231 11.22,6.03 L8.75,3.56 L8.75,10.25 C8.75,10.664 8.414,11 8,11 C7.586,11 7.25,10.664 7.25,10.25 L7.25,3.56 L4.78,6.03 C4.484,6.305 4.024,6.297 3.738,6.012 C3.453,5.726 3.445,5.266 3.72,4.97 L7.47,1.22 C7.763,0.928 8.237,0.928 8.53,1.22 Z M3.75,13 L12.25,13 C12.664,13 13,13.336 13,13.75 C13,14.164 12.664,14.5 12.25,14.5 L3.75,14.5 C3.336,14.5 3,14.164 3,13.75 C3,13.336 3.336,13 3.75,13 Z"/>
</svg>
